img/insights.svg

<svg xmlns="http://www.w3.org/2000/svg" width="118.07" height="95.49"><path d="M33.35 53.79a1.72 1.72 0 0 1-1.72-1.72V34.59a1.72 1.72 0 0 1 3.44 0v17.49a1.72 1.72 0 0 1-1.72 1.71z" fill="#378fdb"/><path d="M33.35 63.38a5.71 5.71 0 1 1 5.71-5.71 5.72 5.72 0 0 1-5.71 5.71zm0-8a2.27 2.27 0 1 0 2.28 2.27 2.28 2.28 0 0 0-2.28-2.26zM83.06 41.9a4 4 0 0 1 1.72.4v-7.71a1.72 1.72 0 1 0-3.44 0v7.71a4 4 0 0 1 1.72-.4zm0 7.98a4 4 0 0 1-1.72-.4v.4a1.72 1.72 0 0 0 3.44 0v-.4a4 4 0 0 1-1.72.4z" fill="#378fdb"/><path d="M83.06 51.6a5.71 5.71 0 1 1 5.71-5.71 5.71 5.71 0 0 1-5.71 5.71zm0-8a2.27 2.27 0 1 0 2.28 2.27 2.27 2.27 0 0 0-2.28-2.25zm-.77-7.29H34.12a1.72 1.72 0 1 1 0-3.44h48.17a1.72 1.72 0 1 1 0 3.44zM58.21 22.22a5.71 5.71 0 1 1 5.71-5.71 5.72 5.72 0 0 1-5.71 5.71zm0-8a2.27 2.27 0 1 0 2.27 2.27 2.28 2.28 0 0 0-2.27-2.26z" fill="#378fdb"/><path d="M58.21 35.09a1.72 1.72 0 0 1-1.72-1.72V20.78a1.72 1.72 0 0 1 3.44 0v12.59a1.72 1.72 0 0 1-1.72 1.72zm9.38 12.71a4 4 0 0 1 1.72.4V34.59a1.72 1.72 0 1 0-3.44 0V48.2a4 4 0 0 1 1.72-.4z" fill="#378fdb"/><path d="M67.59 57.5a5.71 5.71 0 1 1 5.71-5.71 5.71 5.71 0 0 1-5.71 5.71zm0-8a2.27 2.27 0 1 0 2.28 2.27 2.27 2.27 0 0 0-2.28-2.25zM49.8 51.24a4 4 0 0 1 1.72.4V34.59a1.72 1.72 0 1 0-3.44 0v17.05a4 4 0 0 1 1.72-.4z" fill="#378fdb"/><path d="M49.8 60.94a5.71 5.71 0 1 1 5.71-5.71 5.72 5.72 0 0 1-5.71 5.71zm0-8a2.27 2.27 0 1 0 2.28 2.27A2.28 2.28 0 0 0 49.8 53zm43.81-39.42H75.33a1.72 1.72 0 1 1 0-3.44h18.28a1.72 1.72 0 0 1 0 3.44zm6.51 7.74H75.33a1.72 1.72 0 1 1 0-3.44h24.79a1.72 1.72 0 0 1 0 3.44z" fill="#378fdb"/><path d="M9 73C2.47 73 .1 67.68.1 64.11V9C.1 2.47 5.41.1 9 .1h100.1c6.5 0 8.9 5.31 8.9 8.9v55.11c0 6.52-5.31 8.89-8.89 8.89zM9 3.26C6.21 3.3 3.26 4.84 3.26 9v55.11c0 2.78 1.58 5.73 5.73 5.73h100.08c2.79-.06 5.75-1.6 5.75-5.73V9c-.05-2.78-1.58-5.73-5.73-5.73H9z" fill="#378fdb"/><path d="M109.08 73.1H9c-6.59 0-9-5.37-9-9V9c0-6.61 5.37-9 9-9h100.1c6.59 0 9 5.37 9 9v55.11c-.03 6.59-5.4 8.99-9.02 8.99zM9 .2C5.45.2.2 2.54.2 9v55.11c0 3.53 2.34 8.79 8.8 8.79h100.1c3.53 0 8.79-2.34 8.79-8.79V9c0-3.53-2.34-8.79-8.79-8.79zm0 69.74c-4.22 0-5.78-3-5.83-5.83V9c0-4.22 3-5.78 5.81-5.83h100.11c4.22 0 5.78 3 5.83 5.83v55.11c0 4.21-3 5.77-5.84 5.83zM9 3.26v.1C6.26 3.4 3.36 4.91 3.36 9v55.11c0 2.72 1.55 5.63 5.63 5.63h100.08c2.73-.06 5.65-1.57 5.65-5.63V9c-.05-2.72-1.56-5.63-5.63-5.63H9z" fill="#378fdb"/><path d="M40.63 95.39a3.4 3.4 0 0 1-2.81-1.21 3.89 3.89 0 0 1-.63-3.09l4.19-18.67h3.23l-4.45 19.81h37.75l-4.45-19.81h3.24l4.19 18.67a3.38 3.38 0 0 1-.56 3 3.9 3.9 0 0 1-2.88 1.3z" fill="#378fdb"/><path d="M77.45 95.49H40.63a3.49 3.49 0 0 1-2.89-1.25 4 4 0 0 1-.65-3.17l4.21-18.75h3.44l-4.45 19.81h37.49l-4.44-19.81h3.44L81 91.07a3.48 3.48 0 0 1-.58 3.09 4 4 0 0 1-2.97 1.33zm-36-23l-4.17 18.62a3.77 3.77 0 0 0 .61 3 3.3 3.3 0 0 0 2.73 1.17h36.83a3.79 3.79 0 0 0 2.8-1.28 3.29 3.29 0 0 0 .54-2.92l-4.17-18.56h-3L78 92.33H40l4.44-19.81zM69 17.6a2.19 2.19 0 1 0 2.19 2.19A2.19 2.19 0 0 0 69 17.6" fill="#378fdb"/></svg>

<svg xmlns="http://www.w3.org/2000/svg" width="118.07" height="95.49" viewBox="0 0 118.07 95.49"><title>insights</title><path d="M33.35,53.79a1.72,1.72,0,0,1-1.72-1.72V34.59a1.72,1.72,0,0,1,3.44,0V52.08A1.72,1.72,0,0,1,33.35,53.79Z" style="fill:#378fdb"/><path d="M33.35,63.38a5.71,5.71,0,1,1,5.71-5.71A5.72,5.72,0,0,1,33.35,63.38Zm0-8a2.27,2.27,0,1,0,2.28,2.27A2.28,2.28,0,0,0,33.35,55.39Z" style="fill:#378fdb"/><path d="M83.06,41.9a4,4,0,0,1,1.72.4V34.59a1.72,1.72,0,1,0-3.44,0V42.3A4,4,0,0,1,83.06,41.9Z" style="fill:#378fdb"/><path d="M83.06,49.88a4,4,0,0,1-1.72-.4v.4a1.72,1.72,0,0,0,3.44,0v-.4A4,4,0,0,1,83.06,49.88Z" style="fill:#378fdb"/><path d="M83.06,51.6a5.71,5.71,0,1,1,5.71-5.71A5.71,5.71,0,0,1,83.06,51.6Zm0-8a2.27,2.27,0,1,0,2.28,2.27A2.27,2.27,0,0,0,83.06,43.62Z" style="fill:#378fdb"/><path d="M82.29,36.31H34.12a1.72,1.72,0,1,1,0-3.44H82.29a1.72,1.72,0,1,1,0,3.44Z" style="fill:#378fdb"/><path d="M58.21,22.22a5.71,5.71,0,1,1,5.71-5.71A5.72,5.72,0,0,1,58.21,22.22Zm0-8a2.27,2.27,0,1,0,2.27,2.27A2.28,2.28,0,0,0,58.21,14.23Z" style="fill:#378fdb"/><path d="M58.21,35.09a1.72,1.72,0,0,1-1.72-1.72V20.78a1.72,1.72,0,0,1,3.44,0V33.37A1.72,1.72,0,0,1,58.21,35.09Z" style="fill:#378fdb"/><path d="M67.59,47.8a4,4,0,0,1,1.72.4V34.59a1.72,1.72,0,1,0-3.44,0V48.2A4,4,0,0,1,67.59,47.8Z" style="fill:#378fdb"/><path d="M67.59,57.5a5.71,5.71,0,1,1,5.71-5.71A5.71,5.71,0,0,1,67.59,57.5Zm0-8a2.27,2.27,0,1,0,2.28,2.27A2.27,2.27,0,0,0,67.59,49.52Z" style="fill:#378fdb"/><path d="M49.8,51.24a4,4,0,0,1,1.72.4V34.59a1.72,1.72,0,1,0-3.44,0V51.64A4,4,0,0,1,49.8,51.24Z" style="fill:#378fdb"/><path d="M49.8,60.94a5.71,5.71,0,1,1,5.71-5.71A5.72,5.72,0,0,1,49.8,60.94Zm0-8a2.27,2.27,0,1,0,2.28,2.27A2.28,2.28,0,0,0,49.8,53Z" style="fill:#378fdb"/><path d="M93.61,13.52H75.33a1.72,1.72,0,1,1,0-3.44H93.61a1.72,1.72,0,0,1,0,3.44Z" style="fill:#378fdb"/><path d="M100.12,21.26H75.33a1.72,1.72,0,1,1,0-3.44h24.79a1.72,1.72,0,0,1,0,3.44Z" style="fill:#378fdb"/><path d="M9,73C2.47,73,.1,67.68.1,64.11V9C.1,2.47,5.41.1,9,.1h100.1C115.6.1,118,5.41,118,9V64.11c0,6.52-5.31,8.89-8.89,8.89ZM9,3.26C6.21,3.3,3.26,4.84,3.26,9V64.11c0,2.78,1.58,5.73,5.73,5.73H109.07c2.79-.06,5.75-1.6,5.75-5.73V9c-.05-2.78-1.58-5.73-5.73-5.73H9Z" style="fill:#378fdb"/><path d="M109.08,73.1H9c-6.59,0-9-5.37-9-9V9C0,2.39,5.37,0,9,0h100.1c6.59,0,9,5.37,9,9V64.11C118.07,70.7,112.7,73.1,109.08,73.1ZM9,.2C5.45.2.2,2.54.2,9V64.11C.2,67.64,2.54,72.9,9,72.9h100.1c3.53,0,8.79-2.34,8.79-8.79V9c0-3.53-2.34-8.79-8.79-8.79ZM9,69.94c-4.22,0-5.78-3-5.83-5.83V9c0-4.22,3-5.78,5.81-5.83H109.09c4.22,0,5.78,3,5.83,5.83V64.11c0,4.21-3,5.77-5.84,5.83ZM9,3.26v.1C6.26,3.4,3.36,4.91,3.36,9V64.11c0,2.72,1.55,5.63,5.63,5.63H109.07c2.73-.06,5.65-1.57,5.65-5.63V9c-.05-2.72-1.56-5.63-5.63-5.63H9Z" style="fill:#378fdb"/><path d="M40.63,95.39a3.4,3.4,0,0,1-2.81-1.21,3.89,3.89,0,0,1-.63-3.09l4.19-18.67h3.23L40.16,92.23H77.91L73.46,72.42H76.7l4.19,18.67a3.38,3.38,0,0,1-.56,3,3.9,3.9,0,0,1-2.88,1.3Z" style="fill:#378fdb"/><path d="M77.45,95.49H40.63a3.49,3.49,0,0,1-2.89-1.25,4,4,0,0,1-.65-3.17l4.21-18.75h3.44L40.29,92.13H77.78L73.34,72.32h3.44L81,91.07a3.48,3.48,0,0,1-.58,3.09A4,4,0,0,1,77.45,95.49Zm-36-23L37.28,91.11a3.77,3.77,0,0,0,.61,3,3.3,3.3,0,0,0,2.73,1.17H77.45A3.79,3.79,0,0,0,80.25,94a3.29,3.29,0,0,0,.54-2.92L76.62,72.52h-3L78,92.33H40l4.44-19.81Z" style="fill:#378fdb"/><path d="M69,17.6a2.19,2.19,0,1,0,2.19,2.19A2.19,2.19,0,0,0,69,17.6" style="fill:#378fdb"/></svg>
